X: 439
T: Dress her out in fine clothes
C:anon.
O:Ireland
B:Francis O'Neill: "The Dance Music of Ireland" (1907) no. 439
R:Hop, slip jig
Z:Transcribed by Frank Nordberg - http://www.musicaviva.com
F:http://www.musicaviva.com/abc/tunes/ireland/oneill-1001/oneill-1001-043
9.abc
M:9/8
L:1/8
K:D
A2G F2A dzA|B2c dze fdB|A2G F2A dzA|Bcd AFD D3:|f2d d2f a2f|
e2d cze gfe|f2d d2f a2f|ecA ABc d2g|f2d d2f agf|e2c c2e gfe|fdf efg age|e
dc ABc dcB|]
W:
W:
W:  From Musica Viva - http://www.musicaviva.com
W:  the Internet center for free sheet music downloads.


